X:1
T:Bonnie Kate
R:reel
M:4/4
L:1/8
K:D
A2dB ABAF|DFAF ~E3G|FDFA BG (3Bcd|1 cABc d2dB:|2 cABc defg|]
a2fd (3fga fd|fafd (3Bcd ef|~g3f gbag|1 fgec defg:|2 fgef d2dB|]
</abc>
<abc>
